X: 79
T: The Shoemaker's Daughter
B: canberra pickers and fiddlers
B: old time tunes update
B: tunes
M:4/4
L:1/8
R: reel
Q: 1/4=100
K:G
V:1 
|:"G"G2 DG BcdB|G2DE "F"=FEDE|"G"G2 DG Bcde|"F"=fed^c "D"d2 B=c|
"G"dg g/g/g "D"dc c/c/c|"G"Bcde fdef|gfdc BG G/G/G|"D"FGAF "G"G4:|
|:"G"g2 dg bgdg|g2de "F"=fede|"G"g2 dg bgdB|"D"cBAB cdef|
"G"gedc BG G/G/G|"D"FGAB cABc|"G"dg g/g/g defd|"D"cAFA "G"G4:|
% abcbook-tune_id 67a7d9ecc20d99f2b3ecf3b6
% abcbook-tune_composer_id 
% abcbook-link-0 https://www.youtube.com/watch?v=IPM0NF-gSSA
% abcbook-link-title-0 The Moon Shells &quot;The Shoemaker&quot; 9/18/20 Dewey Hall Sheffield, MA
% abcbook-link-start-at-0 16
% abcbook-link-end-at-0 291
% abcbook-boost 0
% abcbook-difficulty 0
% abcbook-tags old time tunes
% abcbook-tablature 
% abcbook-transpose 
% abcbook-tuning AEAE
% abcbook-lastupdated 1739273453448
% abcbook-src-url 
% abcbook-soundfonts 
% abcbook-repeats 1


